X: 251
T: Scoth Misers Hornpipe
%R: hornpipe, reel
Z: 2017 John Chambers <jc:trillian.mit.edu>
B: John Treat - "Gamut for the Fifes", 1779, p.24 #1
F: https://archive.org/details/GamutFortheFifes
N: The rhythms in both final bars are probably wrong; not fixed.
M: C|
L: 1/8
K: G
% - - - - - - - - - - - - - - - - - - - - - - - - -
cB/A/ |\
G3A GABc | dBgd {c}B2AG | c2e2 dBAG | F2A2 A2cB |\
cBcd efgB | dBAG F2ED | GBAc BdAc | BG G2 :|
|: ge |\
dBGB d2g2 | dedc BdcB | cBcd efge | {g}f2d2 d2cB |\
cBcd efgB | cBAG F2ED | GBAc BdAc | B2G G3 :|
% - - - - - - - - - - - - - - - - - - - - - - - - -
